X:1
T:Genevan Psalm CX, 11.10.11.10
T:Genevan Psalm CX, 11.10.11.10
T:Louis Bourgeois, 1551
T:Public Domain Courtesy of the Cyber Hymnal™
C:Louis Bourgeois, 1551
Z:Public Domain
Z:Courtesy of the Cyber Hymnal™
%%score ( 1 2 ) ( 3 4 )
L:1/8
Q:1/4=115
M:none
K:C
V:1 treble 
V:2 treble 
V:3 bass 
V:4 bass 
V:1
 [EA]4 G2 z x3 | [GB]4 [Gc]4 | d2 z [^Gd]2 [Ac]2 x | B4 A4 | [Ec]4 [EB]2 A2 | [EG]4 z2 x4 | %6
 [GB]2 [FA]2 [EA]2 [E^G]2 | [EA]8 | [CE]4 [FA]2 [FA]2 | G4 [FA]4 | c2 (z A2) z x6 | F4 E4 | %12
 [EG]4 [EA]2 [GB]2 | c4 [Gc]4 | [Fd]2 [DA]2 [Ec]2 [EB]2 | [CA]8 |] %16
V:2
 x4 E3 (A2 ^F) | x8 | ^G3 (e2 G) x2 | (A2 ^G2) A4 | x6 (CD) | x4 (A4 ^F2) | x8 | x8 | x8 | %9
 D3 E x4 | G3 (B2 ^F) E3 (G2 D) | (C2 D2) E4 | x8 | (G2 F2) x4 | x8 | x8 |] %16
V:3
 [A,C]4 [E,B,]2 [A,B,]2 x2 | [G,D]4 [C,E]4 | [B,,D]2 [C,C]2 [B,,D]2 [A,,E]2 | [E,B,]4 [A,,C]4 | %4
 A,4 [E,G,]2 (A,B,) | C4 [A,,C]4 x2 | [G,,D]2 (DC) [E,B,]2 [E,B,]2 | [A,,C]8 | C4 [F,C]2 (DC) | %9
 (C2 B,2) [F,C]4 | [A,C]2 [E,B,]2 [A,C]2 [E,B,]2 x4 | (A,3 B,) [C,C]4 | z2 [A,C]2 [G,D]2 x2 | %13
 (A,3 B,) [E,C]4 | (CB,) [F,A,]2 [E,A,]2 [E,^G,]2 | [A,,A,]8 |] %16
V:4
 x10 | x8 | x8 | x8 | A,4 F,2 x2 | C,2 B,,2 x6 | x2 D,2 x4 | x8 | A,2 G,2 D,2 x2 | x8 | x12 | %11
 F,4 x4 | C4 B,2 x2 | F,4 x4 | D,2 x6 | x8 |] %16

